X:1
T:L'umorista
T:L'umorista
T:Giovanni Giacomo Gastoldi (1556-1622)
C:Giovanni Giavomo Gastoldi (1556-1622)
%%score [ 1 2 3 ]
L:1/8
M:2/2
K:F
V:1 treble nm="Soprano"
V:2 treble nm="Alto"
V:3 bass nm="Bass"
V:1
 F G A B c2 d2 | c4 z2 c B | A2 G F G2 G2 |1 F4 z4 :|2 F4 G2 G2 |: G F G A B4 | z2 B c d2 _e2 | %7
w: 1.Se mi fai sal- tar l'u-|mor, Per mia|fè ti fa- rò pen-|tir;|\-tir. Quan- t'è|me- glio per tuo~o nor|Che con- ten- ti~il|
w: 2.Non ti far mò più pre-|gar, T'è pur|no- to~il mio fi- do~a-|mor;|\-mor. Qual- che|pre- mio non vuoi dar|A chi t'ha do-|
 c2 c2 d4 | z2 d _e f2 d2 | z2 c d _e2 c2 | z2 d c B3 A | G2 F2 G4 |1 A4 G2 G2 :|2 A8 |] %14
w: mio de- sir.|Ga- vi- nel- la|dis- pet- to- sa,|Vò che sii la|mia~a- mo- ro-|sa. Quan- t'è|\-sa.|
w: na- to~il cor?|Cer- vel- li- na|dis- de- gno- sa,|V\o che sii la|mia~a- mo- ro-|sa. Qual- che|\-sa.|
V:2
 c B A G A2 B2 | A4 z2 F D | F2 E F E2 E2 |1 F4 z4 :|2 F4 B2 B2 |: B B B c d4 | z2 d c B2 G2 | %7
w: 1.Se mi fai sal- tar l'u-|mor, Per mia|fè ti fa- rò pen-|tir;|\-tir. Quan- t'è|me- glio per tuo~o nor|Che con- ten- ti~il|
w: 2.Non ti far mò più pre-|gar, T'è pur|no- to~il mio fi- do~a-|mor;|\-mor. Qual- che|pre- mio non vuoi dar|A chi t'ha do-|
 A2 A2 B2 f _e | d2 d2 z2 A B | c2 c2 z2 G A | B3 A G2 F2 | (E2 F4 E2) |1 F4 B2 B2 :|2 F8 |] %14
w: mio de- sir. Ga- vi-|nel- la dis- pet-|to- sa, Vò che|sii la mia~a- mo-|ro- * *|sa. Quan- t'è|\-sa.|
w: na- to~il cor? Car- vel-|li- na dis- de-|gno- sa, Vò che|sii la mia~a- mo-|ro- * *|sa. Qual- che|\-sa.|
V:3
 F, F, F, G, F,2 B,,2 | F,4 z2 F, G, | F,2 C, D, C,2 C,2 |1 F,4 z4 :|2 F,4 _E,2 E,2 |: %5
w: 1.Se mi fai sal- tar l'u-|mor, Per mia|fè ti fa- rò pen-|tir;|\-tir. Quan- t'è|
w: 2.Non ti far mò più pre-|gar, T'è pur|no- to~il mio fi- do~a-|mor;|\-mor. Qual- che|
 _E, D, E, C, B,,4 | z2 B, A, G,2 _E,2 | F,2 F,2 B,,4 | z2 B, C D2 D2 | z2 A, B, C2 C2 | %10
w: me- glio per tuo~o nor|Che con- ten- ti~il|mio de- sir.|Ga- vi- nel- la|dis- pet- to- sa,|
w: pre- mio non vuoi dar|A chi t'ha do-|na- to~il cor?|Cer- vel- li- na|dis- de- gno- sa,|
 z2 G, A, B,3 B, | C2 D2 C4 |1 F,4 _E,2 E,2 :|2 F,8 |] %14
w: Vò che sii la|mia~a- mo- ro-|sa. Quan- t'è|\-sa.|
w: V\o che sii la|mia~a- mo- ro-|sa. Qual- che|\-sa.|

